app/public/logos/bridgehub.svg

<svg xmlns="http://www.w3.org/2000/svg" width="350pt" height="350pt" style="isolation:isolate" viewBox="0 0 350 350"><defs><clipPath id="a"><path d="M0 0h350v350H0z"/></clipPath></defs><g clip-path="url(#a)"><path d="M0 0h350v350H0z" style="fill:#331c47"/><circle cx="174.973" cy="66.055" r="25.898" fill="#E40B7B" vector-effect="non-scaling-stroke"/><circle cx="174.973" cy="283.945" r="25.898" fill="#E40B7B" vector-effect="non-scaling-stroke"/><circle cx="79.468" cy="117.85" r="25.898" fill="#E40B7B" vector-effect="non-scaling-stroke"/><circle cx="270.532" cy="117.85" r="25.898" fill="#E40B7B" vector-effect="non-scaling-stroke"/><circle cx="79.468" cy="233.024" r="25.898" fill="#E40B7B" vector-effect="non-scaling-stroke"/><circle cx="270.532" cy="233.024" r="25.898" fill="#E40B7B" vector-effect="non-scaling-stroke"/><path fill="#FFF" d="M232.013 183.305c-2.732-4.098-6.83-7.267-12.239-9.616-1.748-.765-3.66-1.366-5.682-1.913.437-.218.82-.437 1.257-.655 4.808-2.787 8.305-6.229 10.435-10.326s3.224-8.633 3.224-13.605q0-8.195-3.77-14.096c-2.513-3.988-6.174-6.993-10.873-9.124-4.753-2.131-10.38-3.169-16.937-3.169h-80.861l8.086 52.669-8.086 55.565h83.866c7.759 0 14.26-1.311 19.669-3.988 5.355-2.623 9.398-6.338 12.075-10.982 2.677-4.699 4.043-10.053 4.043-16.063-.109-5.737-1.475-10.6-4.207-14.697m-44.419-36.934c1.311.655 2.349 1.584 3.005 2.731.71 1.148 1.038 2.459 1.038 3.989q0 2.377-1.148 4.261a8.1 8.1 0 0 1-3.114 2.951c-1.311.71-2.786 1.038-4.48 1.038h-25.297l-2.568-15.899h27.92c1.748-.055 3.332.273 4.644.929m8.468 55.401c-1.803 1.694-4.261 2.513-7.43 2.513h-33.765l2.841-18.74h30.596c3.278 0 5.846.874 7.649 2.622 1.858 1.749 2.732 3.88 2.732 6.721.109 2.895-.82 5.19-2.623 6.884"/></g></svg>

<?xml version="1.0" encoding="UTF-8" standalone="no"?><!-- Generator: Gravit.io --><svg xmlns="http://www.w3.org/2000/svg" xmlns:xlink="http://www.w3.org/1999/xlink" style="isolation:isolate" viewBox="0 0 350 350" width="350pt" height="350pt"><defs><clipPath id="_clipPath_6vr5DfgggbS70PwU1MORtGjPhVDsb2wJ"><rect width="350" height="350"/></clipPath></defs><g clip-path="url(#_clipPath_6vr5DfgggbS70PwU1MORtGjPhVDsb2wJ)"><rect width="350" height="350" style="fill:rgb(51,28,71)"/><g><circle vector-effect="non-scaling-stroke" cx="174.9726818607555" cy="66.05526069310025" r="25.897596003746486" fill="rgb(228,11,123)"/><circle vector-effect="non-scaling-stroke" cx="174.9726818607555" cy="283.9447393068997" r="25.897596003746486" fill="rgb(228,11,123)"/><circle vector-effect="non-scaling-stroke" cx="79.46846706212918" cy="117.85045270059325" r="25.897596003746486" fill="rgb(228,11,123)"/><circle vector-effect="non-scaling-stroke" cx="270.5315329378708" cy="117.85045270059325" r="25.8975960037465" fill="rgb(228,11,123)"/><circle vector-effect="non-scaling-stroke" cx="79.46846706212918" cy="233.0237277552295" r="25.897596003746486" fill="rgb(228,11,123)"/><circle vector-effect="non-scaling-stroke" cx="270.5315329378708" cy="233.0237277552295" r="25.8975960037465" fill="rgb(228,11,123)"/><path d=" M 232.013 183.305 C 229.281 179.207 225.183 176.038 219.774 173.689 C 218.026 172.924 216.114 172.323 214.092 171.776 C 214.529 171.558 214.912 171.339 215.349 171.121 C 220.157 168.334 223.654 164.892 225.784 160.795 C 227.915 156.697 229.008 152.162 229.008 147.19 C 229.008 141.727 227.751 137.028 225.238 133.094 C 222.725 129.106 219.064 126.101 214.365 123.97 C 209.612 121.839 203.985 120.801 197.428 120.801 L 116.567 120.801 L 124.653 173.47 L 116.567 229.035 L 200.433 229.035 C 208.192 229.035 214.693 227.724 220.102 225.047 C 225.457 222.424 229.5 218.709 232.177 214.065 C 234.854 209.366 236.22 204.012 236.22 198.002 C 236.111 192.265 234.745 187.402 232.013 183.305 Z  M 199.668 169.81 L 199.668 169.81 C 199.668 169.81 199.668 169.81 199.668 169.81 L 199.668 169.81 Z  M 187.594 146.371 C 188.905 147.026 189.943 147.955 190.599 149.102 C 191.309 150.25 191.637 151.561 191.637 153.091 C 191.637 154.675 191.254 156.096 190.489 157.352 C 189.724 158.609 188.686 159.593 187.375 160.303 C 186.064 161.013 184.589 161.341 182.895 161.341 L 157.598 161.341 L 155.03 145.442 L 182.95 145.442 C 184.698 145.387 186.282 145.715 187.594 146.371 Z  M 196.062 201.772 C 194.259 203.466 191.801 204.285 188.632 204.285 L 154.867 204.285 L 157.708 185.545 L 188.304 185.545 C 191.582 185.545 194.15 186.419 195.953 188.167 C 197.811 189.916 198.685 192.047 198.685 194.888 C 198.794 197.783 197.865 200.078 196.062 201.772 Z " fill="rgb(255,255,255)"/></g></g></svg>
